X: 1
T: Blacksmith, The
M: 6/8
L: 1/8
R: jig
K: Bmin
|:fe|d2B def|a2a afe|f2B A2c|B2B Bfe|
d2B def|a2a afe|f2B A2c|B2B B:|
|:fg|a2a aba|f2f f2e|d2B def|a2a afe|
d2B def|a2a afe|f2B A2c|B2B B:|
